svgs/sharp-solid/seat-airline.svg

<svg xmlns="http://www.w3.org/2000/svg" viewBox="0 0 448 512"><!--! Font Awesome Pro 6.6.0 by @fontawesome - https://fontawesome.com License - https://fontawesome.com/license (Commercial License) Copyright 2024 Fonticons, Inc. --><path d="M64 32L64 0 0 0 0 32 0 160l0 6.6 2.6 6 96 224 8.3 19.4 21.1 0 88 0 0 48-96 0-24 0 0 48 24 0 240 0 24 0 0-48-24 0-96 0 0-48 112 0 22.2 0 7.8-20.8 24-64L446.2 288 400 288l-278.3 0L108 256l212 0 32 0 0-64-32 0L80.5 192 64 153.4 64 32z"/></svg>

<svg xmlns="http://www.w3.org/2000/svg" viewBox="0 0 448 512"><!--! Font Awesome Pro 6.5.2 by @fontawesome - https://fontawesome.com License - https://fontawesome.com/license (Commercial License) Copyright 2024 Fonticons, Inc. --><path d="M64 32V0H0V32 160v6.6l2.6 6 96 224 8.3 19.4H128h88v48H120 96v48h24H360h24V464H360 264V416H376h22.2l7.8-20.8 24-64L446.2 288H400 121.7L108 256H320h32V192H320 80.5L64 153.4V32z"/></svg>
